icons/question-16.svg

<svg width="16" height="16" viewBox="0 0 16 16" xmlns="http://www.w3.org/2000/svg">
  <path fill-rule="evenodd" clip-rule="evenodd" d="M8 1.5C4.41015 1.5 1.5 4.41015 1.5 8C1.5 11.5899 4.41015 14.5 8 14.5C11.5899 14.5 14.5 11.5899 14.5 8C14.5 4.41015 11.5899 1.5 8 1.5ZM0 8C0 3.58172 3.58172 0 8 0C12.4183 0 16 3.58172 16 8C16 12.4183 12.4183 16 8 16C3.58172 16 0 12.4183 0 8ZM9 11C9 11.5523 8.55229 12 8 12C7.44772 12 7 11.5523 7 11C7 10.4477 7.44772 10 8 10C8.55229 10 9 10.4477 9 11ZM6.92082 6.08541C7.00133 5.92438 7.11032 5.78617 7.25977 5.68654C7.40453 5.59004 7.63124 5.5 8 5.5C8.27975 5.5 8.55291 5.58656 8.7375 5.725C8.90206 5.84842 9 6.01009 9 6.25C9 6.42662 8.95919 6.51381 8.92283 6.56835C8.87748 6.63639 8.79924 6.71162 8.64646 6.81349C8.57007 6.86441 8.48788 6.9139 8.38754 6.97411L8.38141 6.97779L8.38139 6.9778C8.28769 7.03402 8.17704 7.10041 8.06831 7.1729C7.84608 7.32107 7.58057 7.52712 7.37593 7.83412C7.14619 8.17878 7.23935 8.64442 7.58401 8.87417C7.92867 9.10391 8.39432 9.01075 8.62406 8.66609C8.66942 8.59803 8.74766 8.52279 8.90043 8.42093C8.97681 8.37001 9.059 8.32052 9.15933 8.26032L9.16554 8.25659L9.1656 8.25656C9.25926 8.20036 9.36986 8.134 9.47854 8.06154C9.70075 7.91339 9.96627 7.70737 10.1709 7.4004C10.3846 7.07994 10.5 6.69838 10.5 6.25C10.5 5.48991 10.1396 4.90158 9.6375 4.525C9.15542 4.16344 8.55358 4 8 4C7.36876 4 6.84547 4.15996 6.42772 4.43846C6.01467 4.71383 5.74866 5.07562 5.57918 5.41459C5.39393 5.78507 5.5441 6.23558 5.91459 6.42082C6.28507 6.60606 6.73558 6.45589 6.92082 6.08541Z"/>
</svg>

<svg xmlns="http://www.w3.org/2000/svg" width="16" height="16" viewBox="0 0 16 16"><path fill-rule="evenodd" d="M8 1.5a6.5 6.5 0 100 13 6.5 6.5 0 000-13zM0 8a8 8 0 1116 0A8 8 0 010 8zm9 3a1 1 0 11-2 0 1 1 0 012 0zM6.92 6.085c.081-.16.19-.299.34-.398.145-.097.371-.187.74-.187.28 0 .553.087.738.225A.613.613 0 019 6.25c0 .177-.04.264-.077.318a.956.956 0 01-.277.245c-.076.051-.158.1-.258.161l-.007.004a7.728 7.728 0 00-.313.195 2.416 2.416 0 00-.692.661.75.75 0 001.248.832.956.956 0 01.276-.245 6.3 6.3 0 01.26-.16l.006-.004c.093-.057.204-.123.313-.195.222-.149.487-.355.692-.662.214-.32.329-.702.329-1.15 0-.76-.36-1.348-.863-1.725A2.76 2.76 0 008 4c-.631 0-1.155.16-1.572.438-.413.276-.68.638-.849.977a.75.75 0 101.342.67z"/></svg>
